dist/svg/static/vehicle-signal-small.svg

<svg xmlns="http://www.w3.org/2000/svg" width="24" height="24" viewBox="0 0 24 24"><g fill="none" stroke="currentColor" stroke-miterlimit="10"><path d="M5 10c-1.6 1-2.5 3.4-1.5 5M3.5 7c-3 2.3-3.7 6.4-2.3 9.8M20.5 15c1-1.6.1-4-1.5-5M22.8 16.8c1.5-3.4.7-7.6-2.3-9.8M8.5 17.5H5.9c-.3 0-.4-.9-.4-1.2v-3.7l3.2-3.1h6.5l3.2 3.1v3.7c0 .3-.1 1.2-.4 1.2h-2.6v-2h-7l.1 2z"/></g></svg>

<?xml version="1.0" encoding="UTF-8" standalone="no"?>
<svg width="24px" height="24px" viewBox="0 0 24 24" version="1.1" xmlns="http://www.w3.org/2000/svg" xmlns:xlink="http://www.w3.org/1999/xlink">
    <!-- Generator: sketchtool 46.2 (44496) - http://www.bohemiancoding.com/sketch -->
    <title>vehicle-signal-small</title>
    <desc>Created with sketchtool.</desc>
    <defs></defs>
    <g id="icons-published" stroke="none" stroke-width="1" fill="none" fill-rule="evenodd">
        <g id="briefing" transform="translate(-68.000000, -2330.000000)"></g>
        <g id="vehicle-signal-small" stroke="#000000">
            <path d="M8.5,17.5 L5.9,17.5 C5.6,17.5 5.5,16.6 5.5,16.3 L5.5,12.6 L8.7,9.5 L15.2,9.5 L18.4,12.6 L18.4,16.3 C18.4,16.6 18.3,17.5 18,17.5 L15.4,17.5 L15.4,15.5 L8.4,15.5 C8.4,15.5 8.5,17.5 8.5,17.5 Z M5,10 C3.4,11 2.5,13.4 3.5,15 M3.5,7 C0.5,9.3 -0.2,13.4 1.2,16.8 M20.5,15 C21.5,13.4 20.6,11 19,10 M22.8,16.8 C24.3,13.4 23.5,9.2 20.5,7" id="Shape"></path>
        </g>
    </g>
</svg>
